src/components/00-materials/images-raw/Desk.svg

<svg width="96" height="96" viewBox="0 0 96 96" fill="none" xmlns="http://www.w3.org/2000/svg">
<path d="M87.5 42.73V84.87H76.97L75.83 77.49H20.17L19.03 84.87H8.5V42.73H87.5Z" stroke="#00008F" stroke-width="2" stroke-linecap="round" stroke-linejoin="round"/>
<path d="M8.5 42.73H87.5V50.1H8.5V42.73Z" stroke="#00008F" stroke-width="2" stroke-linecap="round" stroke-linejoin="round"/>
<path d="M79 42.7299H75.59C74.9209 42.7305 74.2745 42.4871 73.772 42.0453C73.2694 41.6035 72.9452 40.9936 72.86 40.3299L72.09 34.2399C72.0401 33.8527 72.0736 33.4593 72.1881 33.086C72.3027 32.7128 72.4957 32.3683 72.7542 32.0757C73.0127 31.7831 73.3307 31.5492 73.687 31.3895C74.0433 31.2298 74.4296 31.1482 74.82 31.1499H80C80.4 31.1501 80.7951 31.2375 81.1578 31.4061C81.5205 31.5747 81.8421 31.8203 82.1001 32.1259C82.3581 32.4316 82.5463 32.7898 82.6517 33.1756C82.757 33.5614 82.7769 33.9656 82.71 34.3599L81.71 40.4499C81.5993 41.0883 81.2667 41.6671 80.7709 42.0842C80.2751 42.5014 79.6479 42.73 79 42.7299Z" stroke="#00008F" stroke-width="2" stroke-linecap="round" stroke-linejoin="round"/>
<path d="M8.5 77.49H87.5" stroke="#00008F" stroke-width="2" stroke-linecap="square" stroke-linejoin="round"/>
<path d="M31.25 24.4299L31.82 18.7099C31.82 14.5299 36.35 11.1299 41.92 11.1299H51.82C57.4 11.1299 61.92 14.5299 61.92 18.7099L64.33 42.7099H29.42" stroke="#00008F" stroke-width="2" stroke-linecap="round" stroke-linejoin="round"/>
<path d="M12.5 24.4299H39.04V42.7399H12.5V24.4299Z" stroke="#00008F" stroke-width="2" stroke-linecap="round" stroke-linejoin="round"/>
</svg>

<svg width="96" height="96" viewBox="0 0 96 96" fill="none" xmlns="http://www.w3.org/2000/svg"><path d="M87.5 42.73v42.14H76.97l-1.14-7.38H20.17l-1.14 7.38H8.5V42.73h79z" stroke="#00008F" stroke-width="2" stroke-linecap="round" stroke-linejoin="round"/><path d="M8.5 42.73h79v7.37h-79v-7.37z" stroke="#00008F" stroke-width="2" stroke-linecap="round" stroke-linejoin="round"/><path d="M79 42.73h-3.41a2.75 2.75 0 01-2.73-2.4l-.77-6.09a2.74 2.74 0 012.73-3.09H80a2.75 2.75 0 012.71 3.21l-1 6.09A2.75 2.75 0 0179 42.73z" stroke="#00008F" stroke-width="2" stroke-linecap="round" stroke-linejoin="round"/><path d="M8.5 77.49h79" stroke="#00008F" stroke-width="2" stroke-linecap="square" stroke-linejoin="round"/><path d="M31.25 24.43l.57-5.72c0-4.18 4.53-7.58 10.1-7.58h9.9c5.58 0 10.1 3.4 10.1 7.58l2.41 24H29.42" stroke="#00008F" stroke-width="2" stroke-linecap="round" stroke-linejoin="round"/><path d="M12.5 24.43h26.54v18.31H12.5V24.43z" stroke="#00008F" stroke-width="2" stroke-linecap="round" stroke-linejoin="round"/></svg>
